images/Cli_bellit.svg

<svg width="116" height="18" viewBox="0 0 116 18" fill="none" xmlns="http://www.w3.org/2000/svg">
<path d="M5.34887 0L2.71401 8.86877C1.27865 13.7291 0.0401438 17.8342 0.000818642 17.9697C-0.00413552 17.9807 0.0147338 17.9899 0.0215567 18H14.1724C17.7052 17.7174 19.1366 17.0652 20.7448 15.6071C22.1801 14.3098 22.9271 12.4121 22.5536 11.0566C22.2586 9.95291 21.3345 9.21716 19.5059 8.61689C19.1913 8.52007 19.3486 8.40388 20.2728 8.03597C22.5143 7.14524 23.9301 5.49916 24.0874 3.62088C24.166 2.45905 23.6938 1.58798 22.5927 0.832794C21.472 0.09697 20.3315 0 12.6632 0H5.34887ZM28.0786 0L27.5479 1.70416C27.2726 2.63363 26.9974 3.44691 26.9385 3.54372C26.8991 3.62118 29.7305 3.67912 33.2305 3.67912H39.6208L40.014 2.3819C40.25 1.64607 40.4858 0.832794 40.5447 0.542338L40.6822 0H28.0786ZM42.8255 0L42.4323 1.31689C40.1179 9.02367 37.5182 17.8213 37.5051 18H55.3911L55.9207 16.227L56.5106 14.2324L51.025 14.1741C45.9128 14.1354 45.5391 14.0967 45.6374 13.7869C45.6964 13.6126 46.6205 10.4757 47.702 6.8159C48.8031 3.17551 49.6878 0.15491 49.6878 0.0968188C49.6878 0.0387278 48.1345 0 46.2469 0H42.8255ZM62.9009 0L62.5863 0.929613C61.9965 2.76917 57.5528 17.776 57.5528 17.989C57.5528 17.993 57.5748 17.9962 57.5782 18H75.4453L75.9764 16.1688L76.5863 14.1356H71.1004C68.0723 14.1356 65.6144 14.0775 65.6144 14.0195C65.6144 13.942 68.78 3.2339 69.6648 0.348699C69.7632 0.019515 69.5075 0 66.3222 0H62.9009ZM92.6896 0L89.3274 1.80098L85.9651 3.5823L91.0382 3.64054C93.8106 3.65991 96.0913 3.73714 96.0913 3.79523C96.0913 3.91141 92.2571 16.8079 91.9622 17.6793L91.8535 18H98.7577L100.889 10.902L103.032 3.67912L106.67 3.64054L110.288 3.5823L110.838 1.80098L111.369 0H92.6896ZM88.4844 0.0291217C87.9019 0.0242785 87.0858 0.0288837 86.1813 0.038576L82.8583 0.0968188L82.308 1.93638C81.9934 2.9433 81.7377 3.87261 81.7377 4.00815C81.7377 4.18243 88.9932 0.445443 89.3865 0.0775311C89.416 0.048485 89.0669 0.0339625 88.4844 0.0291217V0.0291217ZM112.919 0.16376V0.411858H113.38V1.44737H113.761V0.411858H114.222V0.16376H112.919ZM114.452 0.16376V1.44737H114.811V0.587721L115.084 1.14556H115.348L115.621 0.587721V1.44737H116V0.16376H115.558L115.226 0.807455L114.894 0.16376H114.452ZM11.2868 3.5823L13.6267 3.60159C16.1632 3.60159 16.7727 3.77601 16.9693 4.5312C17.1266 5.18957 16.576 6.23514 15.8092 6.68051C14.9833 7.18397 10.3628 7.39712 10.3628 6.93239C10.3628 6.77748 10.5792 5.96412 10.8348 5.11212L11.2868 3.5823ZM82.48 5.06106C81.846 5.06356 81.4428 5.07346 81.4232 5.09283C81.3838 5.13156 80.5383 7.86162 79.5748 11.1535C78.5917 14.4453 77.7069 17.3695 77.6086 17.6793L77.4999 18H84.492L85.3753 15.0652C85.8865 13.3224 86.7714 10.379 87.3219 8.52007L88.3442 5.1314L84.9229 5.07316C83.9791 5.06348 83.1141 5.05856 82.48 5.06106V5.06106ZM25.9158 7.1646L25.5029 8.57831C25.267 9.3335 25.0507 10.0887 25.0114 10.2242C24.9524 10.3985 26.1518 10.4564 30.6152 10.4564H36.2977L36.7106 9.0624C36.9465 8.28785 37.1628 7.53266 37.2021 7.41648C37.2611 7.22284 36.0617 7.1646 31.5983 7.1646H25.9158ZM9.26178 10.4179L11.9554 10.495C15.1997 10.5918 15.6717 10.7856 15.6717 12.0248C15.6717 12.6638 15.5538 12.9349 15.0622 13.3803C14.728 13.6901 14.1379 14.0194 13.7446 14.1356C12.7025 14.4067 8.19993 14.3874 8.19993 14.097C8.19993 13.9808 8.43573 13.1091 8.73066 12.1409L9.26178 10.4179ZM23.7529 14.3292L23.5563 15.0652C23.4383 15.4525 23.2221 16.2269 23.0451 16.7497C22.8878 17.2919 22.6126 17.9647 22.7502 17.9697L23.5701 18H35.3699L35.5112 17.4856C35.6292 17.079 35.8454 16.3237 36.0224 15.7815C36.1797 15.2587 36.3173 14.6973 36.3173 14.5811C36.3173 14.3874 34.9213 14.3292 30.0253 14.3292H23.7529Z" fill="#CCCCCC"/>
</svg>

<?xml version="1.0" encoding="UTF-8" standalone="no"?><!DOCTYPE svg PUBLIC "-//W3C//DTD SVG 1.1//EN" "http://www.w3.org/Graphics/SVG/1.1/DTD/svg11.dtd"><svg width="100%" height="100%" viewBox="0 0 116 18" version="1.1" xmlns="http://www.w3.org/2000/svg" xmlns:xlink="http://www.w3.org/1999/xlink" xml:space="preserve" xmlns:serif="http://www.serif.com/" style="fill-rule:evenodd;clip-rule:evenodd;stroke-linejoin:round;stroke-miterlimit:2;"><path d="M5.349,0l-2.635,8.869c-1.435,4.86 -2.674,8.965 -2.713,9.101c-0.005,0.011 0.014,0.02 0.021,0.03l14.15,0c3.533,-0.283 4.965,-0.935 6.573,-2.393c1.435,-1.297 2.182,-3.195 1.809,-4.55c-0.295,-1.104 -1.22,-1.84 -3.048,-2.44c-0.315,-0.097 -0.157,-0.213 0.767,-0.581c2.241,-0.891 3.657,-2.537 3.814,-4.415c0.079,-1.162 -0.393,-2.033 -1.494,-2.788c-1.121,-0.736 -2.262,-0.833 -9.93,-0.833l-7.314,0Zm22.73,0l-0.531,1.704c-0.275,0.93 -0.551,1.743 -0.61,1.84c-0.039,0.077 2.792,0.135 6.292,0.135l6.391,0l0.393,-1.297c0.236,-0.736 0.472,-1.549 0.531,-1.84l0.137,-0.542l-12.603,0Zm14.746,0l-0.393,1.317c-2.314,7.707 -4.914,16.504 -4.927,16.683l17.886,0l0.53,-1.773l0.59,-1.995l-5.486,-0.058c-5.112,-0.039 -5.486,-0.077 -5.388,-0.387c0.059,-0.174 0.983,-3.311 2.065,-6.971c1.101,-3.64 1.986,-6.661 1.986,-6.719c0,-0.058 -1.554,-0.097 -3.441,-0.097l-3.422,0Zm20.076,0l-0.315,0.93c-0.59,1.839 -5.033,16.846 -5.033,17.059c-0,0.004 0.022,0.007 0.025,0.011l17.867,0l0.531,-1.831l0.61,-2.033l-5.486,0c-3.028,0 -5.486,-0.059 -5.486,-0.117c0,-0.077 3.166,-10.785 4.051,-13.67c0.098,-0.329 -0.158,-0.349 -3.343,-0.349l-3.421,0Zm29.789,-0l-3.363,1.801l-3.362,1.781l5.073,0.059c2.773,0.019 5.053,0.096 5.053,0.154c0,0.116 -3.834,13.013 -4.129,13.884l-0.109,0.321l6.905,0l2.131,-7.098l2.143,-7.223l3.638,-0.038l3.618,-0.059l0.55,-1.781l0.531,-1.801l-18.679,0Zm-4.206,0.029c-0.582,-0.005 -1.398,-0 -2.303,0.01l-3.323,0.058l-0.55,1.839c-0.315,1.007 -0.57,1.937 -0.57,2.072c-0,0.174 7.255,-3.563 7.648,-3.93c0.03,-0.03 -0.319,-0.044 -0.902,-0.049Zm24.435,0.135l-0,0.248l0.461,-0l-0,1.035l0.381,-0l-0,-1.035l0.461,-0l-0,-0.248l-1.303,-0Zm1.533,-0l-0,1.283l0.359,-0l-0,-0.859l0.273,0.558l0.264,-0l0.273,-0.558l-0,0.859l0.379,-0l-0,-1.283l-0.442,-0l-0.332,0.643l-0.332,-0.643l-0.442,-0Zm-103.165,3.418l2.34,0.02c2.536,-0 3.146,0.174 3.342,0.929c0.158,0.659 -0.393,1.704 -1.16,2.15c-0.826,0.503 -5.446,0.716 -5.446,0.251c-0,-0.155 0.216,-0.968 0.472,-1.82l0.452,-1.53Zm71.193,1.479c-0.634,0.003 -1.037,0.012 -1.057,0.032c-0.039,0.039 -0.885,2.769 -1.848,6.06c-0.983,3.292 -1.868,6.216 -1.966,6.526l-0.109,0.321l6.992,-0l0.883,-2.935c0.511,-1.743 1.396,-4.686 1.947,-6.545l1.022,-3.389l-3.421,-0.058c-0.944,-0.01 -1.809,-0.014 -2.443,-0.012Zm-56.564,2.104l-0.413,1.413c-0.236,0.755 -0.452,1.511 -0.492,1.646c-0.059,0.174 1.141,0.232 5.604,0.232l5.683,-0l0.413,-1.394c0.235,-0.774 0.452,-1.529 0.491,-1.646c0.059,-0.193 -1.14,-0.251 -5.604,-0.251l-5.682,-0Zm-16.654,3.253l2.693,0.077c3.245,0.097 3.717,0.291 3.717,1.53c-0,0.639 -0.118,0.91 -0.61,1.355c-0.334,0.31 -0.924,0.639 -1.317,0.756c-1.043,0.271 -5.545,0.251 -5.545,-0.039c-0,-0.116 0.236,-0.988 0.531,-1.956l0.531,-1.723Zm14.491,3.911l-0.197,0.736c-0.118,0.387 -0.334,1.162 -0.511,1.685c-0.157,0.542 -0.432,1.215 -0.295,1.22l0.82,0.03l11.8,-0l0.141,-0.514c0.118,-0.407 0.334,-1.162 0.511,-1.705c0.158,-0.522 0.295,-1.084 0.295,-1.2c-0,-0.194 -1.396,-0.252 -6.292,-0.252l-6.272,-0Z" style="fill:#9ea5a7;fill-rule:nonzero;"/></svg>
